; generated by PrusaSlicer 2.7.1+win64 on 2025-01-18 at 09:03:02 UTC

; 

; external perimeters extrusion width = 1.00mm
; perimeters extrusion width = 1.00mm
; infill extrusion width = 1.00mm
; solid infill extrusion width = 1.00mm
; top infill extrusion width = 1.00mm
; first layer extrusion width = 1.00mm

M104 S200 ; set temperature
;TYPE:Custom
G28 ; home all axes
G1 Z5 F5000 ; lift nozzle
M109 S200 ; set temperature and wait for it to be reached
G21 ; set units to millimeters
G90 ; use absolute coordinates
M82 ; use absolute distances for extrusion
G92 E0
; Filament gcode
M107
;LAYER_CHANGE
;Z:1
;HEIGHT:1
G1 Z1 F7800
G1 E-2 F2400
G92 E0
G1 X74.62 Y105.768 F7800
G1 E2 F2400
;TYPE:External perimeter
;WIDTH:1
G1 F1800
G1 X74.487 Y105.44 E2.11557
G1 X74.437 Y105.03 E2.25044
G1 X74.441 Y95.014 E5.52097
G1 X74.547 Y94.382 E5.73022
G1 X74.711 Y94.099 E5.83702
G1 X75.032 Y93.815 E5.97697
G1 X75.2 Y93.743 E6.03665
G1 X75.639 Y93.636 E6.18419
G1 X99.055 Y92.145 E13.84572
G1 X99.979 Y92.113 E14.14762
G1 X100.97 Y92.142 E14.47135
G1 X101.875 Y92.226 E14.76813
G1 X102.815 Y92.373 E15.0788
G1 X103.895 Y92.619 E15.44049
G1 X104.928 Y92.934 E15.79313
G1 X105.791 Y93.261 E16.09448
G1 X106.619 Y93.635 E16.39115
G1 X107.537 Y94.124 E16.73078
G1 X108.386 Y94.653 E17.05742
G1 X109.215 Y95.251 E17.39119
G1 X109.974 Y95.88 E17.71307
G1 X110.718 Y96.587 E18.0482
G1 X111.328 Y97.245 E18.34118
G1 X111.968 Y98.033 E18.67266
G1 X112.499 Y98.779 E18.97166
G1 X112.967 Y99.539 E19.2631
G1 X113.083 Y99.799 E19.35606
G1 X113.101 Y100.068 E19.44409
G1 X113.034 Y100.339 E19.53524
G1 X112.711 Y100.892 E19.74436
G1 X112.355 Y101.433 E19.95583
G1 X111.928 Y102.02 E20.19285
G1 X111.519 Y102.53 E20.40632
G1 X111.115 Y102.993 E20.60697
G1 X110.655 Y103.477 E20.825
G1 X110.11 Y103.998 E21.07119
G1 X109.64 Y104.408 E21.27485
G1 X109.048 Y104.876 E21.52126
G1 X108.54 Y105.243 E21.7259
G1 X107.903 Y105.658 E21.97415
G1 X107.357 Y105.978 E22.1808
G1 X106.43 Y106.455 E22.52122
G1 X105.485 Y106.862 E22.85719
G1 X104.603 Y107.174 E23.16268
G1 X103.661 Y107.442 E23.48248
G1 X102.703 Y107.648 E23.80245
G1 X101.755 Y107.788 E24.11536
G1 X100.874 Y107.864 E24.4041
G1 X99.953 Y107.887 E24.70493
G1 X99.065 Y107.856 E24.99507
G1 X75.764 Y106.372 E32.61898
G1 X75.175 Y106.255 E32.81506
G1 X74.82 Y106.023 E32.95354
G1 X74.713 Y105.886 E33.0103
G1 E31.0103 F2400
G92 E0
G1 X74.713 Y105.886 F7800
G1 X112.505 Y100.777
G1 E2 F2400
;TYPE:Solid infill
;WIDTH:1.01189
G1 F1800
G1 X112.505 Y99.937 E2.27844
G1 X112.008 Y99.105 E2.59968
G1 X111.707 Y98.683 E2.7715
G1 X111.707 Y101.322 E3.64626
G1 X111.46 Y101.662 E3.78556
G1 X110.91 Y102.332 E4.07289
G1 X110.91 Y97.666 E5.61954
G1 X110.299 Y97.001 E5.91889
G1 X110.113 Y96.824 E6.004
G1 X110.113 Y103.18 E8.11084
G1 X109.315 Y103.909 E8.46911
G1 X109.315 Y96.099 E11.05791
G1 X108.854 Y95.717 E11.25636
G1 X108.518 Y95.474 E11.39381
G1 X108.518 Y104.532 E14.39629
G1 X107.721 Y105.073 E14.71559
G1 X107.721 Y94.933 E18.07673
G1 X107.242 Y94.635 E18.26372
G1 X106.924 Y94.465 E18.38325
G1 X106.924 Y105.539 E22.05398
G1 X106.126 Y105.945 E22.35076
G1 X106.126 Y94.059 E26.29065
G1 X105.329 Y93.716 E26.57826
G1 X105.329 Y106.288 E30.74554
G1 X104.532 Y106.575 E31.02633
G1 X104.532 Y93.429 E35.38387
G1 X103.734 Y93.186 E35.66038
G1 X103.734 Y106.809 E40.17604
G1 X102.937 Y106.995 E40.44732
G1 X102.937 Y93.005 E45.08463
G1 X102.14 Y92.864 E45.35292
G1 X102.14 Y107.136 E50.0837
G1 X101.343 Y107.233 E50.34983
G1 X101.343 Y92.768 E55.14459
G1 X100.934 Y92.73 E55.28075
G1 X100.545 Y92.719 E55.40974
G1 X100.545 Y107.283 E60.23731
G1 X99.748 Y107.291 E60.50151
G1 X99.748 Y92.719 E65.33173
G1 X98.951 Y92.741 E65.59601
G1 X98.951 Y107.259 E70.40833
G1 X98.153 Y107.208 E70.67339
G1 X98.153 Y92.792 E75.4519
G1 X97.356 Y92.843 E75.71662
G1 X97.356 Y107.157 E80.46132
G1 X96.559 Y107.106 E80.72604
G1 X96.559 Y92.894 E85.43693
G1 X95.762 Y92.945 E85.70165
G1 X95.762 Y107.055 E90.37873
G1 X94.964 Y107.005 E90.64376
G1 X94.964 Y92.995 E95.2877
G1 X94.167 Y93.046 E95.55242
G1 X94.167 Y106.954 E100.16255
G1 X93.37 Y106.903 E100.42727
G1 X93.37 Y93.097 E105.00359
G1 X92.572 Y93.148 E105.26865
G1 X92.572 Y106.852 E109.81116
G1 X91.775 Y106.801 E110.07588
G1 X91.775 Y93.199 E114.58458
G1 X90.978 Y93.249 E114.84928
G1 X90.978 Y106.751 E119.32483
G1 X90.181 Y106.7 E119.58955
G1 X90.181 Y93.3 E124.03129
G1 X89.383 Y93.351 E124.29635
G1 X89.383 Y106.649 E128.70428
G1 X88.586 Y106.598 E128.969
G1 X88.586 Y93.402 E133.34312
G1 X87.789 Y93.453 E133.60784
G1 X87.789 Y106.547 E137.94815
G1 X86.991 Y106.497 E138.21318
G1 X86.991 Y93.503 E142.52034
G1 X86.194 Y93.554 E142.78506
G1 X86.194 Y106.446 E147.05841
G1 X85.397 Y106.395 E147.32313
G1 X85.397 Y93.605 E151.56267
G1 X84.6 Y93.656 E151.82739
G1 X84.6 Y106.344 E156.03312
G1 X83.802 Y106.294 E156.29815
G1 X83.802 Y93.706 E160.47073
G1 X83.005 Y93.757 E160.73545
G1 X83.005 Y106.243 E164.87422
G1 X82.208 Y106.192 E165.13894
G1 X82.208 Y93.808 E169.2439
G1 X81.41 Y93.859 E169.50896
G1 X81.41 Y106.141 E173.58011
G1 X80.613 Y106.09 E173.84483
G1 X80.613 Y93.91 E177.88217
G1 X79.816 Y93.96 E178.14687
G1 X79.816 Y106.04 E182.15106
G1 X79.019 Y105.989 E182.41578
G1 X79.019 Y94.011 E186.38616
G1 X78.221 Y94.062 E186.65122
G1 X78.221 Y105.938 E190.58779
G1 X77.424 Y105.887 E190.85251
G1 X77.424 Y94.113 E194.75527
G1 X76.627 Y94.164 E195.01999
G1 X76.627 Y105.836 E198.88894
G1 X75.829 Y105.786 E199.15397
G1 X75.829 Y94.214 E202.98978
G1 X75.707 Y94.222 E203.03031
G1 X75.493 Y94.259 E203.1023
G1 X75.351 Y94.32 E203.15353
G1 X75.173 Y94.477 E203.2322
G1 X75.103 Y94.598 E203.27854
G1 X75.032 Y94.919 E203.38751
G1 X75.032 Y105.88 E207.02079
;LAYER_CHANGE
;Z:2
;HEIGHT:1
G1 Z2 F7800
G1 E205.02079 F2400
G92 E0
G1 X75.032 Y105.88 F7800
G1 X79.675 Y101.102
G1 E2 F2400
;TYPE:External perimeter
;WIDTH:1
G1 F1800
G1 X79.675 Y98.898 E2.71967
G1 X79.638 Y98.73 E2.77584
G1 X79.472 Y98.554 E2.85484
G1 X79.283 Y98.505 E2.91859
G1 X73.964 Y98.505 E4.65541
G1 X73.964 Y94.539 E5.95043
G1 X74.013 Y94.048 E6.11155
G1 X74.145 Y93.747 E6.21887
G1 X74.34 Y93.461 E6.3319
G1 X74.697 Y93.226 E6.47146
G1 X75.168 Y93.114 E6.62954
G1 X98.942 Y91.426 E14.41203
G1 X100.208 Y91.393 E14.82556
G1 X101.171 Y91.434 E15.14029
G1 X102.376 Y91.565 E15.53608
G1 X103.419 Y91.752 E15.88208
G1 X104.455 Y92.007 E16.23046
G1 X105.413 Y92.307 E16.55826
G1 X106.497 Y92.725 E16.93762
G1 X107.536 Y93.214 E17.31258
G1 X108.427 Y93.707 E17.64509
G1 X109.142 Y94.157 E17.92095
G1 X110.059 Y94.815 E18.28949
G1 X110.917 Y95.525 E18.65314
G1 X111.734 Y96.3 E19.02085
G1 X112.411 Y97.032 E19.34642
G1 X113.074 Y97.85 E19.69024
;TYPE:Overhang perimeter
;WIDTH:1
G1 F3600
G1 X113.702 Y98.729 E20.04299
G1 X114.02 Y99.247 E20.24146
G1 X114.315 Y99.798 E20.44554
G1 X114.333 Y100.07 E20.53455
G1 X114.291 Y100.261 E20.59841
G1 X114.023 Y100.766 E20.78509
G1 X113.554 Y101.49 E21.06677
G1 X113.072 Y102.153 E21.33442
;TYPE:External perimeter
;WIDTH:1
G1 F1800
G1 X112.698 Y102.629 E21.53209
G1 X112.237 Y103.165 E21.76294
G1 X111.753 Y103.68 E21.99371
G1 X111.355 Y104.073 E22.17635
G1 X110.727 Y104.641 E22.45284
G1 X110.072 Y105.176 E22.729
G1 X109.123 Y105.856 E23.11022
G1 X108.403 Y106.307 E23.38764
G1 X107.442 Y106.833 E23.74537
G1 X106.398 Y107.316 E24.12098
G1 X105.452 Y107.68 E24.45196
G1 X104.327 Y108.029 E24.83658
G1 X103.16 Y108.301 E25.22786
G1 X102.111 Y108.472 E25.57491
G1 X100.873 Y108.585 E25.98084
G1 X99.927 Y108.608 E26.28983
G1 X98.957 Y108.575 E26.60675
G1 X75.283 Y106.894 E34.35651
G1 X74.697 Y106.774 E34.55183
G1 X74.344 Y106.541 E34.68994
G1 X74.233 Y106.398 E34.74905
G1 X74.086 Y106.147 E34.84403
G1 X73.968 Y105.666 E35.00575
G1 X73.964 Y101.495 E36.36771
G1 X79.283 Y101.495 E38.10453
G1 X79.472 Y101.446 E38.16828
G1 X79.6 Y101.333 E38.22403
G1 X79.629 Y101.245 E38.25428
G1 E36.25428 F2400
G92 E0
G1 X79.629 Y101.245 F7800
G1 X74.544 Y102.074
G1 E2 F2400
;TYPE:Solid infill
;WIDTH:1.0646
G1 F1200
G1 X74.547 Y105.131 E3.08031
;WIDTH:1.08885
G1 X74.601 Y105.611 E3.25588
;WIDTH:1.12644
G1 X74.649 Y105.718 E3.30034
;WIDTH:1.16402
G1 X74.696 Y105.824 E3.34611
;WIDTH:1.2016
G1 X74.744 Y105.931 E3.39423
G1 X74.972 Y106.14 E3.52115
;WIDTH:1.18349
G1 X75.126 Y106.185 E3.58578
;WIDTH:1.14811
G1 X75.28 Y106.23 E3.64805
;WIDTH:1.11274
G1 X75.434 Y106.275 E3.70796
;WIDTH:1.07736
G1 X76.125 Y106.33 E3.9566
;WIDTH:1.06602
G1 X76.128 Y106.33 E3.95766
;WIDTH:1.10683
G1 X81.593 Y106.698 E5.98946
;WIDTH:1.14763
G1 X87.057 Y107.066 E8.1138
;WIDTH:1.18844
G1 X92.521 Y107.433 E10.33103
G1 E8.33103 F2400
G92 E0
G1 X92.521 Y107.433 F7800
G1 X107.228 Y106.658
G1 E2 F2400
;TYPE:Bridge infill
;WIDTH:1.00063
G1 F3600
G1 X106 Y106.688 E2.40161
G1 X107.029 Y106.196 E2.77451
G1 X108.083 Y105.587 E3.1725
G1 X108.198 Y105.584 E3.21011
G1 X108.726 Y105.253 E3.41385
G1 X109.202 Y104.925 E3.60285
G1 X109.765 Y104.495 E3.83447
G1 X109.584 Y104.499 E3.89366
G1 X110.226 Y103.94 E4.17197
G1 X110.76 Y103.42 E4.41566
G1 X110.99 Y103.414 E4.49088
G1 X111.702 Y102.68 E4.82521
G1 X111.996 Y102.339 E4.97241
G1 X111.717 Y102.346 E5.06366
G1 X112.087 Y101.868 E5.26129
G1 X112.505 Y101.276 E5.49823
G1 X112.825 Y101.268 E5.60288
G1 X113.515 Y100.2 E6.01859
G1 X113.13 Y100.21 E6.14451
G1 X113.145 Y100.176 E6.15666
G1 X113.145 Y99.825 E6.27142
G1 X113.048 Y99.6 E6.35153
G1 X112.79 Y99.167 E6.51632
G1 X113.119 Y99.159 E6.62392
G1 X112.55 Y98.35 E6.94729
G1 X112.369 Y98.126 E7.04145
G1 X112.088 Y98.133 E7.13335
G1 X111.74 Y97.682 E7.31959
G1 X111.249 Y97.102 E7.56804
G1 X111.488 Y97.097 E7.6462
G1 X111.22 Y96.807 E7.7753
G1 X110.445 Y96.071 E8.12474
G1 X110.242 Y96.076 E8.19113
G1 X109.654 Y95.558 E8.44733
G1 X109.015 Y95.055 E8.71321
G1 X109.151 Y95.051 E8.75769
G1 X108.739 Y94.756 E8.92336
G1 X108.06 Y94.328 E9.18578
G1 X107.537 Y94.039 E9.38114
G1 X106.5 Y94.065 E9.72029
G1 E7.72029 F2400
G92 E0
G1 X106.5 Y94.065 F7800
G1 X92.599 Y92.561
G1 E2 F2400
;TYPE:Solid infill
;WIDTH:1.18799
G1 F1200
G1 X87.28 Y92.919 E4.1574
;WIDTH:1.14835
G1 X81.961 Y93.277 E6.22694
;WIDTH:1.10871
G1 X76.642 Y93.635 E8.20862
G1 E6.20862 F2400
G92 E0
G1 X76.642 Y93.635 F7800
G1 X74.543 Y95.723
G1 E2 F2400
;WIDTH:1.0646
G1 F1200
G1 X74.544 Y97.925 E2.77816
;LAYER_CHANGE
;Z:3
;HEIGHT:1
G1 Z3 F7800
G1 E.77816 F2400
G92 E0
G1 X74.544 Y97.925 F7800
G1 X79.653 Y99.327
G1 E2 F2400
;TYPE:External perimeter
;WIDTH:1
G1 F1800
G1 X79.504 Y99.133 E2.07987
G1 X79.283 Y99.065 E2.15537
G1 X73.497 Y99.064 E4.04468
G1 X73.497 Y94.028 E5.68909
G1 X73.545 Y93.54 E5.84921
G1 X73.676 Y93.244 E5.95491
G1 X73.815 Y93.019 E6.04127
G1 X74.065 Y92.797 E6.15044
G1 X74.317 Y92.697 E6.23897
G1 X74.676 Y92.6 E6.3604
G1 X98.69 Y90.727 E14.22553
G1 X99.439 Y90.688 E14.47043
G1 X100.04 Y90.681 E14.66669
G1 X101.277 Y90.728 E15.0709
G1 X102.422 Y90.848 E15.44683
G1 X103.642 Y91.059 E15.85111
G1 X104.738 Y91.323 E16.21922
G1 X105.867 Y91.674 E16.60528
G1 X106.904 Y92.07 E16.96774
G1 X107.908 Y92.525 E17.32767
G1 X108.959 Y93.088 E17.71699
G1 X109.941 Y93.698 E18.09447
G1 X110.828 Y94.331 E18.45029
G1 X111.745 Y95.079 E18.8367
G1 X112.655 Y95.93 E19.24353
G1 X113.506 Y96.846 E19.65179
G1 X114.061 Y97.527 E19.93865
G1 X114.555 Y98.206 E20.21283
;TYPE:Overhang perimeter
;WIDTH:1
G1 F3600
G1 X114.894 Y98.687 E20.40498
G1 X115.453 Y99.602 E20.7551
G1 X115.529 Y99.876 E20.84795
G1 X115.553 Y100.074 E20.91308
G1 X115.477 Y100.356 E21.00845
G1 X115.221 Y100.804 E21.17693
G1 X114.849 Y101.387 E21.40275
G1 X114.34 Y102.112 E21.692
;TYPE:External perimeter
;WIDTH:1
G1 F1800
G1 X113.959 Y102.607 E21.89597
G1 X113.479 Y103.185 E22.1413
G1 X112.888 Y103.832 E22.42744
G1 X112.404 Y104.317 E22.65117
G1 X111.808 Y104.867 E22.91599
G1 X111.286 Y105.309 E23.13934
G1 X110.67 Y105.788 E23.39414
G1 X110.033 Y106.24 E23.64918
G1 X109.515 Y106.578 E23.85115
G1 X108.427 Y107.208 E24.26168
G1 X107.297 Y107.76 E24.67233
G1 X106.123 Y108.235 E25.08587
G1 X104.909 Y108.629 E25.50263
G1 X103.656 Y108.938 E25.92403
G1 X102.531 Y109.137 E26.29708
G1 X101.229 Y109.276 E26.72464
G1 X100.055 Y109.319 E27.10824
G1 X99.385 Y109.31 E27.32704
G1 X98.704 Y109.274 E27.54972
G1 X74.76 Y107.407 E35.39191
G1 X74.405 Y107.351 E35.50926
G1 X74.01 Y107.163 E35.6521
G1 X73.718 Y106.859 E35.78974
G1 X73.572 Y106.555 E35.89986
G1 X73.501 Y106.172 E36.02705
G1 X73.498 Y100.936 E37.73677
G1 X79.283 Y100.935 E39.62575
G1 X79.438 Y100.903 E39.67743
G1 X79.601 Y100.773 E39.74551
G1 X79.675 Y100.543 E39.8244
G1 X79.656 Y99.477 E40.17254
G1 X79.696 Y98.485 F7800
;TYPE:Solid infill
;WIDTH:1.15229
G1 F1200
G1 X79.484 Y98.463 E40.25563
;WIDTH:1.1097
G1 X79.273 Y98.442 E40.33454
;WIDTH:1.0671
G1 X74.647 Y98.442 E41.97413
;WIDTH:1.10792
G1 X74.562 Y98.421 E42.00665
;WIDTH:1.14897
G1 X74.477 Y98.401 E42.04057
;WIDTH:1.19002
G1 X74.392 Y98.38 E42.07608
;WIDTH:1.23107
G1 X74.307 Y98.36 E42.11298
;WIDTH:1.27212
G1 X74.222 Y98.339 E42.15148
G1 X74.193 Y98.249 E42.19305
;WIDTH:1.23061
G1 X74.164 Y98.159 E42.23299
;WIDTH:1.18911
G1 X74.135 Y98.069 E42.2713
;WIDTH:1.14761
G1 X74.105 Y97.979 E42.3081
;WIDTH:1.10611
G1 X74.076 Y97.889 E42.34315
;WIDTH:1.0646
G1 X74.073 Y94.443 E43.56093
;WIDTH:1.08861
G1 X74.148 Y93.829 E43.7857
;WIDTH:1.12445
G1 X74.202 Y93.723 E43.8307
;WIDTH:1.1603
G1 X74.255 Y93.617 E43.8773
;WIDTH:1.19614
G1 X74.308 Y93.512 E43.9253
G1 X74.519 Y93.336 E44.03743
;WIDTH:1.15823
G1 X74.74 Y93.27 E44.12792
;WIDTH:1.11432
G1 X74.961 Y93.204 E44.21419
;WIDTH:1.07041
G1 X75.037 Y93.194 E44.24146
;WIDTH:1.10584
G1 X80.982 Y92.752 E46.45036
;WIDTH:1.14769
G1 X86.928 Y92.309 E48.76341
;WIDTH:1.18955
G1 X92.873 Y91.866 E51.17981
G1 E49.17981 F2400
G92 E0
G1 X92.873 Y91.866 F7800
G1 X107.288 Y93.579
G1 E2 F2400
;TYPE:Bridge infill
;WIDTH:1.02279
G1 F3600
G1 X108.351 Y93.58 E2.36311
G1 X108.598 Y93.713 E2.45894
G1 X109.541 Y94.299 E2.83818
G1 X110.041 Y94.656 E3.04804
G1 X109.907 Y94.655 E3.09381
G1 X110.625 Y95.226 E3.40717
G1 X111.197 Y95.73 E3.66758
G1 X111.386 Y95.731 E3.73214
G1 X112.144 Y96.44 E4.08667
G1 X112.483 Y96.805 E4.25683
G1 X112.257 Y96.805 E4.33403
G1 X112.712 Y97.333 E4.57212
G1 X113.144 Y97.879 E4.80994
G1 X113.417 Y97.879 E4.90319
G1 X114.207 Y98.953 E5.35861
G1 X113.889 Y98.953 E5.46723
G1 X114.3 Y99.643 E5.74157
G1 X114.382 Y99.835 E5.81289
G1 X114.377 Y100.026 E5.87816
G1 X114.819 Y100.027 E6.02914
G1 X114.604 Y100.43 E6.18516
G1 X114.17 Y101.099 E6.45756
G1 X113.856 Y101.098 E6.56482
G1 X113.502 Y101.628 E6.78253
G1 X113.106 Y102.17 E7.01182
G1 X113.384 Y102.17 E7.10678
G1 X112.935 Y102.711 E7.34693
G1 X112.45 Y103.242 E7.59258
G1 X112.215 Y103.241 E7.67285
G1 X111.779 Y103.705 E7.89034
G1 X111.15 Y104.313 E8.18917
G1 X111.345 Y104.313 E8.25578
G1 X110.831 Y104.749 E8.48601
G1 X110.24 Y105.209 E8.74183
G1 X109.994 Y105.384 E8.84495
G1 X109.856 Y105.383 E8.89209
G1 X109.142 Y105.885 E9.19023
G1 X108.222 Y106.454 E9.55974
G1 X109.23 Y106.455 E9.90406
G1 E7.90406 F2400
G92 E0
G1 X109.23 Y106.455 F7800
G1 X79.689 Y101.508
G1 E2 F2400
;TYPE:Solid infill
;WIDTH:1.16759
G1 F1200
G1 X79.511 Y101.532 E2.07116
;WIDTH:1.11911
G1 X79.333 Y101.556 E2.1387
;WIDTH:1.07063
G1 X74.647 Y101.558 E3.80643
;WIDTH:1.1081
G1 X74.562 Y101.579 E3.83895
;WIDTH:1.14904
G1 X74.477 Y101.599 E3.87287
;WIDTH:1.18999
G1 X74.393 Y101.62 E3.90798
;WIDTH:1.23093
G1 X74.308 Y101.64 E3.94488
;WIDTH:1.27187
G1 X74.223 Y101.661 E3.98337
G1 X74.193 Y101.764 E4.03053
;WIDTH:1.23042
G1 X74.164 Y101.868 E4.07613
;WIDTH:1.18897
G1 X74.134 Y101.971 E4.11959
;WIDTH:1.14751
G1 X74.104 Y102.075 E4.16157
;WIDTH:1.10606
G1 X74.074 Y102.178 E4.20133
;WIDTH:1.0646
G1 X74.077 Y105.651 E5.42865
;WIDTH:1.08279
G1 X74.139 Y106.156 E5.6123
;WIDTH:1.11858
G1 X74.189 Y106.259 E5.65533
;WIDTH:1.15437
G1 X74.238 Y106.362 E5.69989
;WIDTH:1.19015
G1 X74.288 Y106.464 E5.74596
G1 X74.514 Y106.657 E5.8665
;WIDTH:1.16793
G1 X74.664 Y106.713 E5.92996
;WIDTH:1.13557
G1 X74.814 Y106.768 E5.99113
;WIDTH:1.10322
G1 X75.732 Y106.86 E6.33198
;WIDTH:1.06268
G1 X75.74 Y106.861 E6.33482
;WIDTH:1.10498
G1 X81.502 Y107.289 E8.47366
;WIDTH:1.1473
G1 X87.264 Y107.717 E10.71416
;WIDTH:1.18963
G1 X93.026 Y108.146 E13.05635
M106 S244.8
;LAYER_CHANGE
;Z:4
;HEIGHT:1
G1 Z4 F7800
